svgs/regular/compress-wide.svg

<svg xmlns="http://www.w3.org/2000/svg" viewBox="0 0 512 512"><!--! Font Awesome Pro 6.0.0-alpha3 by @fontawesome - https://fontawesome.com License - https://fontawesome.com/license (Commercial License) --><path d="M376 224h112C501.3 224 512 213.3 512 200c0-13.26-10.75-24-24-24H400V88C400 74.74 389.3 64 376 64S352 74.74 352 88v112C352 213.3 362.7 224 376 224zM136 288h-112C10.75 288 0 298.7 0 312c0 13.25 10.75 24 24 24H112v88C112 437.3 122.7 448 136 448S160 437.3 160 424v-112C160 298.7 149.3 288 136 288zM488 288h-112C362.7 288 352 298.7 352 312v112c0 13.25 10.75 24 24 24s24-10.75 24-24V336h88c13.25 0 24-10.75 24-24C512 298.7 501.3 288 488 288zM136 64C122.7 64 112 74.74 112 88V176H24C10.75 176 0 186.7 0 200C0 213.3 10.75 224 24 224h112C149.3 224 160 213.3 160 200v-112C160 74.74 149.3 64 136 64z"/></svg>

<svg xmlns="http://www.w3.org/2000/svg" viewBox="0 0 512 512"><!--! Font Awesome Pro 6.4.2 by @fontawesome - https://fontawesome.com License - https://fontawesome.com/license (Commercial License) Copyright 2023 Fonticons, Inc. --><path d="M160 88c0-13.3-10.7-24-24-24s-24 10.7-24 24v88H24c-13.3 0-24 10.7-24 24s10.7 24 24 24H136c13.3 0 24-10.7 24-24V88zM24 288c-13.3 0-24 10.7-24 24s10.7 24 24 24h88v88c0 13.3 10.7 24 24 24s24-10.7 24-24V312c0-13.3-10.7-24-24-24H24zM400 88c0-13.3-10.7-24-24-24s-24 10.7-24 24V200c0 13.3 10.7 24 24 24H488c13.3 0 24-10.7 24-24s-10.7-24-24-24H400V88zM376 288c-13.3 0-24 10.7-24 24V424c0 13.3 10.7 24 24 24s24-10.7 24-24V336h88c13.3 0 24-10.7 24-24s-10.7-24-24-24H376z"/></svg>
